Yaru++/actions/16/draw-triangle3.svg

<svg viewBox="0 0 24 24" xmlns="http://www.w3.org/2000/svg">
  <path d="m12 4-8.3554688 14.857422-.6445312 1.142578h1.125 15.574219 1.300781l-.644531-1.142578zm0 2.3125 7.054688 12.544922h-14.273438z" fill="#808080"/>
</svg>

<svg xmlns="http://www.w3.org/2000/svg" viewBox="0 0 24 24">
 <defs>
  <style id="current-color-scheme" type="text/css">
   .ColorScheme-Text { color:#808080; }
  </style>
 </defs>
 <path fill="#808080" class="ColorScheme-Text" d="M 12 4 L 3.6445312 18.857422 L 3 20 L 4.125 20 L 19.699219 20 L 21 20 L 20.355469 18.857422 L 12 4 z M 12 6.3125 L 19.054688 18.857422 L 4.78125 18.857422 L 12 6.3125 z"/>
</svg>
